public/images/ux-research-audits.svg

<svg fill="none" height="168" viewBox="0 0 280 168" width="280" xmlns="http://www.w3.org/2000/svg"><g stroke-width="2"><path d="m140 167c44.827 0 111.443-35.131 138-84.566-26.557-49.435-93.173-81.434-138-81.434-44.8272 0-111.4432 31.999-138 81.434 26.5568 49.435 93.1728 84.566 138 84.566z" stroke="#000"/><path d="m202.17 83.8584c0 34.5176-27.982 62.4996-62.5 62.4996s-62.5001-27.982-62.5001-62.4996c0-34.5178 27.9821-62.5 62.5001-62.5s62.5 27.9822 62.5 62.5z" stroke="#40d251"/></g></svg>

<svg width="280" height="168" viewBox="0 0 280 168" fill="none" xmlns="http://www.w3.org/2000/svg">
<path d="M140 167C184.827 167 251.443 131.869 278 82.434C251.443 32.999 184.827 1 140 1C95.1728 1 28.5568 32.999 2 82.434C28.5568 131.869 95.1728 167 140 167Z" stroke="black" stroke-width="2"/>
<path d="M202.17 83.8584C202.17 118.376 174.188 146.358 139.67 146.358C105.152 146.358 77.1699 118.376 77.1699 83.8584C77.1699 49.3406 105.152 21.3584 139.67 21.3584C174.188 21.3584 202.17 49.3406 202.17 83.8584Z" stroke="#40D251" stroke-width="2"/>
</svg>
